X:1
T:British grenadiers
C:trad
Z:Falkbeer (Klas Krantz)
N:A transcription from the 1975 Stanley Kubrick movie
N:Barry Lyndon performed by Fifes and Drums
R:march
Q:&quot;allegro&quot;
L:1/8
M:2/4
K:D
A |: dA de | f2 ef/g/ | ad f/e/d/c/ |1 d3 A :|2 d3 |
f/g/ | a>b ag | f>g ad | de/f/ gf | e3A |
dA de | f2 ef/g/ | ad f/e/d/c/ | d3 |]
